X: 2605
T: Baltic Rocks
R: reel
M: 4/4
K: Gmajor
BD ~D2 BDAG|EAAG AGEG|D3A AGEG|DEGA Bggd|
BD~D2 BDAG|EAAG A{B}AGE|DEGA .B/.c/d gd|1 BDAd BG GA:|2 BDAd BGG2||
gdB gdB gd|GA{B}AG AGef|gdB gdB gd|deed ~e3f|
gdB gdB gd|GA{B}AG AGEG|DEGA Bdgd|BDAd BGG2:|

